.local/share/icons/Gruvbox-Plus-Dark/actions/16/twitter-mentions.svg

<svg xmlns="http://www.w3.org/2000/svg" width="16" height="16" viewBox="0 0 16 16">
 <defs>
  <style id="current-color-scheme" type="text/css">
   .ColorScheme-Text { color:#ebdbb2; } .ColorScheme-Highlight { color:#458588; }
  </style>
 </defs>
 <path style="fill:currentColor" class="ColorScheme-Text" d="M 10.634766 0.99609375 C 10.173857 1.0115105 9.7458312 1.2840094 9.5351562 1.7167969 C 7.6060562 1.6002269 5.7583188 2.7575219 5.0742188 4.6699219 C 4.4651988 6.4021219 3.2345563 8.6400594 2.5976562 8.7558594 C 2.4689462 8.8284594 2.3605706 8.9449431 2.3066406 9.0957031 C 2.1876606 9.4283131 2.3589462 9.7930494 2.6914062 9.9121094 L 11.992188 13.242188 C 12.324608 13.361247 12.687651 13.190002 12.806641 12.857422 C 12.860541 12.706662 12.850275 12.546043 12.796875 12.408203 C 12.378175 11.914293 12.846719 9.4031344 13.474609 7.6777344 C 14.158769 5.7653344 13.463237 3.6973 11.898438 2.5625 C 12.047307 1.93815 11.717549 1.2916125 11.099609 1.0703125 C 10.945124 1.0149825 10.788402 0.99095484 10.634766 0.99609375 z M 6.7441406 12.716797 C 6.4476006 13.545757 7.0116494 14.507181 8.0058594 14.863281 C 9.0000194 15.219341 10.04725 14.834819 10.34375 14.005859 L 6.7441406 12.716797 z"/>
</svg>

<svg width="16" height="16" version="1.1" xmlns="http://www.w3.org/2000/svg">
  <defs>
    <style id="current-color-scheme" type="text/css">.ColorScheme-Text { color:#ebdbb2; } .ColorScheme-Highlight { color:#458588; }</style>
  </defs>
  <path class="ColorScheme-Text" d="m10.63 1c-0.4609 0.01542-0.8889 0.2879-1.1 0.7207-1.929-0.1166-3.777 1.041-4.461 2.953-0.609 1.732-1.84 3.97-2.477 4.086-0.1287 0.0726-0.2371 0.1891-0.291 0.3398-0.119 0.3326 0.05231 0.6973 0.3848 0.8164l9.301 3.33c0.3324 0.1191 0.6955-0.05219 0.8145-0.3848 0.0539-0.1508 0.04363-0.3114-0.0098-0.4492-0.4187-0.4939 0.04984-3.005 0.6777-4.73 0.6842-1.912-0.01134-3.98-1.576-5.115 0.1489-0.6244-0.1809-1.271-0.7988-1.492-0.1545-0.05533-0.3112-0.07936-0.4648-0.07422zm-3.891 11.72c-0.2965 0.829 0.2675 1.79 1.262 2.146 0.9942 0.3561 2.041-0.02846 2.338-0.8574z" fill="currentColor"/>
</svg>
